X:288
T: Dui hua
N: C0670
O: China,Liaoning
S: MM, Komposition]
N: Notenbeilage kopiert. Derzeitige chines. Kinderlieder Diese
N: Sammlung enthaelt mit Stand 1987 wenigstens 32 Aufnahmen mit dem Titel
N: "Dui hua". Wenig Verzierungen.
R: Xiaodiao. Xin minge]
M: 2/4
L: 1/16
K: D
B2B2B2F2 | B4A2F2 | B2BBB2F2 | E4E4 |
E4F2E2 | D4B,4 | B2B2B2F2 | A4A4 |
B2B2B2F2 | B4A2F2 | B2BBB2F2 | E4E4 |
E2E2F2E2 | D4B,4 | B2B2B2F2 | A4A4 |
B2B2B2F2 | B4A2F2 | B2BBB2F2 | E4E4 |
E4F2E2 | D4B,4 | B2B2B2F2 | A4A4 |
A3FE4 | B2D2E4 |
A3FA2F2 | A2D2E4 |
A2A2F2A2 | A2D2E4 |
A3FA2A2 | A2D2E4 |
A2A2F2A2 | A2D2E4 |
E4F2E2 | D4B,4 | B2B2B2F2 | A8

@@@ Tune index: 6289
